Faba/22x22/places/user-home.svg

<?xml version="1.0" encoding="UTF-8" standalone="no"?>
<!-- Created with Inkscape (http://www.inkscape.org/) -->

<svg
   xmlns:dc="http://purl.org/dc/elements/1.1/"
   xmlns:cc="http://creativecommons.org/ns#"
   xmlns:rdf="http://www.w3.org/1999/02/22-rdf-syntax-ns#"
   xmlns:svg="http://www.w3.org/2000/svg"
   xmlns="http://www.w3.org/2000/svg"
   xmlns:xlink="http://www.w3.org/1999/xlink"
   xmlns:sodipodi="http://sodipodi.sourceforge.net/DTD/sodipodi-0.dtd"
   xmlns:inkscape="http://www.inkscape.org/namespaces/inkscape"
   version="1.1"
   width="22"
   height="22"
   id="svg12707"
   inkscape:version="0.48.4 r9939"
   sodipodi:docname="user-home.svg">
  <sodipodi:namedview
     pagecolor="#ffffff"
     bordercolor="#666666"
     borderopacity="1"
     objecttolerance="10"
     gridtolerance="10"
     guidetolerance="10"
     inkscape:pageopacity="0"
     inkscape:pageshadow="2"
     inkscape:window-width="1364"
     inkscape:window-height="700"
     id="namedview41"
     showgrid="false"
     inkscape:snap-bbox="true"
     inkscape:bbox-paths="true"
     inkscape:bbox-nodes="true"
     inkscape:snap-bbox-midpoints="true"
     inkscape:zoom="1"
     inkscape:cx="7.7286456"
     inkscape:cy="20.382568"
     inkscape:window-x="0"
     inkscape:window-y="28"
     inkscape:window-maximized="1"
     inkscape:current-layer="svg12707">
    <inkscape:grid
       type="xygrid"
       id="grid3847" />
  </sodipodi:namedview>
  <defs
     id="defs12709">
    <linearGradient
       x1="633.30469"
       y1="225.31654"
       x2="633.30469"
       y2="229.72876"
       id="linearGradient6572-9-1"
       xlink:href="#linearGradient6092"
       gradientUnits="userSpaceOnUse"
       gradientTransform="matrix(1.3879448,0,0,1.3871043,-867.75826,-304.61462)" />
    <linearGradient
       id="linearGradient6092">
      <stop
         id="stop6094"
         style="stop-color:#ffffff;stop-opacity:1"
         offset="0" />
      <stop
         id="stop6096"
         style="stop-color:#ffffff;stop-opacity:0.23529412"
         offset="0.33202404" />
      <stop
         id="stop6098"
         style="stop-color:#ffffff;stop-opacity:0.15686275"
         offset="0.97230476" />
      <stop
         id="stop6100"
         style="stop-color:#ffffff;stop-opacity:0.39215687"
         offset="1" />
    </linearGradient>
    <linearGradient
       x1="8"
       y1="15"
       x2="8"
       y2="10"
       id="linearGradient5610-3-8"
       xlink:href="#linearGradient5604-7"
       gradientUnits="userSpaceOnUse"
       gradientTransform="matrix(1.6666724,0,0,1.6000028,-2.33337,-7.7000402)" />
    <linearGradient
       id="linearGradient5604-7-6">
      <stop
         id="stop5606-8-2"
         style="stop-color:#ae6a37;stop-opacity:1"
         offset="0" />
      <stop
         id="stop5608-5-0"
         style="stop-color:#d28e5b;stop-opacity:1"
         offset="1" />
    </linearGradient>
    <linearGradient
       x1="9"
       y1="10"
       x2="9"
       y2="15"
       id="linearGradient5618-5-7"
       xlink:href="#linearGradient5612-8"
       gradientUnits="userSpaceOnUse"
       gradientTransform="matrix(1.6666724,0,0,1.6000028,-2.33337,-7.7000402)" />
    <linearGradient
       id="linearGradient5612-8-6">
      <stop
         id="stop5614-2-5"
         style="stop-color:#793b19;stop-opacity:1"
         offset="0" />
      <stop
         id="stop5616-0-2"
         style="stop-color:#a76331;stop-opacity:1"
         offset="1" />
    </linearGradient>
    <linearGradient
       x1="633.30469"
       y1="218.84358"
       x2="633.30469"
       y2="230.17346"
       id="linearGradient6572-9"
       xlink:href="#linearGradient3977-3"
       gradientUnits="userSpaceOnUse"
       gradientTransform="matrix(1.3879448,0,0,1.3871043,-867.75826,-305.61463)" />
    <linearGradient
       id="linearGradient3977-3">
      <stop
         id="stop3979-9"
         style="stop-color:#ffffff;stop-opacity:1"
         offset="0" />
      <stop
         id="stop3981-8"
         style="stop-color:#ffffff;stop-opacity:0.23529412"
         offset="0.02929282" />
      <stop
         id="stop3983-01"
         style="stop-color:#ffffff;stop-opacity:0.15686275"
         offset="0.97230476" />
      <stop
         id="stop3985-2"
         style="stop-color:#ffffff;stop-opacity:0.39215687"
         offset="1" />
    </linearGradient>
    <linearGradient
       x1="8.6742573"
       y1="15.027722"
       x2="8.6742573"
       y2="3.1024117"
       id="linearGradient5936"
       xlink:href="#linearGradient5518-7"
       gradientUnits="userSpaceOnUse"
       gradientTransform="matrix(1.3879448,0,0,1.3871043,-0.29276,-6.0001202)" />
    <linearGradient
       id="linearGradient5518-7-7">
      <stop
         id="stop5520-3-3"
         style="stop-color:#fff2e5;stop-opacity:1"
         offset="0" />
      <stop
         id="stop5522-8-2"
         style="stop-color:#d8c7b6;stop-opacity:1"
         offset="1" />
    </linearGradient>
    <linearGradient
       x1="14.05722"
       y1="15.943487"
       x2="14.05722"
       y2="1.0485218"
       id="linearGradient5938-1"
       xlink:href="#linearGradient5917-8"
       gradientUnits="userSpaceOnUse"
       gradientTransform="matrix(1.3879448,0,0,1.3871043,-0.29276,-6.0001202)" />
    <linearGradient
       id="linearGradient5917-8">
      <stop
         id="stop5919-8"
         style="stop-color:#62421e;stop-opacity:0.49803922"
         offset="0" />
      <stop
         id="stop5921-4"
         style="stop-color:#9f764d;stop-opacity:0.41568837"
         offset="1" />
    </linearGradient>
    <linearGradient
       inkscape:collect="always"
       xlink:href="#linearGradient5518-7"
       id="linearGradient6957"
       gradientUnits="userSpaceOnUse"
       gradientTransform="translate(0,-1e-5)"
       x1="8.6742573"
       y1="15.027722"
       x2="8.6742573"
       y2="3.1024117" />
    <linearGradient
       id="linearGradient5518-7">
      <stop
         id="stop5520-3"
         style="stop-color:#eae5ff;stop-opacity:1;"
         offset="0" />
      <stop
         id="stop5522-8"
         style="stop-color:#d4d5da;stop-opacity:1;"
         offset="1" />
    </linearGradient>
    <linearGradient
       inkscape:collect="always"
       xlink:href="#linearGradient3977"
       id="linearGradient6954"
       gradientUnits="userSpaceOnUse"
       gradientTransform="translate(-602.23729,-208.24457)"
       x1="633.30469"
       y1="218.84358"
       x2="633.30469"
       y2="230.17346" />
    <linearGradient
       id="linearGradient3977">
      <stop
         id="stop3979"
         style="stop-color:#ffffff;stop-opacity:1"
         offset="0" />
      <stop
         id="stop3981"
         style="stop-color:#ffffff;stop-opacity:0.23529412"
         offset="0.02929282" />
      <stop
         id="stop3983"
         style="stop-color:#ffffff;stop-opacity:0.15686275"
         offset="0.97230476" />
      <stop
         id="stop3985"
         style="stop-color:#ffffff;stop-opacity:0.39215687"
         offset="1" />
    </linearGradient>
    <linearGradient
       gradientTransform="translate(22.762712,7.7554366)"
       inkscape:collect="always"
       xlink:href="#linearGradient5604-7"
       id="linearGradient6948"
       gradientUnits="userSpaceOnUse"
       x1="8"
       y1="15"
       x2="8"
       y2="10" />
    <linearGradient
       id="linearGradient5604-7">
      <stop
         id="stop5606-8"
         style="stop-color:#6f6c7e;stop-opacity:1;"
         offset="0" />
      <stop
         id="stop5608-5"
         style="stop-color:#aaaaaa;stop-opacity:1;"
         offset="1" />
    </linearGradient>
    <linearGradient
       gradientTransform="translate(22.762712,7.7554366)"
       inkscape:collect="always"
       xlink:href="#linearGradient5612-8"
       id="linearGradient6950"
       gradientUnits="userSpaceOnUse"
       x1="9"
       y1="10"
       x2="9"
       y2="15" />
    <linearGradient
       id="linearGradient5612-8">
      <stop
         id="stop5614-2"
         style="stop-color:#212121;stop-opacity:1;"
         offset="0" />
      <stop
         id="stop5616-0"
         style="stop-color:#58575e;stop-opacity:1;"
         offset="1" />
    </linearGradient>
    <linearGradient
       y2="3.1024117"
       x2="8.6742573"
       y1="15.027722"
       x1="8.6742573"
       gradientTransform="translate(22.762712,7.7554266)"
       gradientUnits="userSpaceOnUse"
       id="linearGradient3046"
       xlink:href="#linearGradient5518-7"
       inkscape:collect="always" />
    <linearGradient
       inkscape:collect="always"
       xlink:href="#linearGradient5518-7"
       id="linearGradient3900"
       gradientUnits="userSpaceOnUse"
       gradientTransform="matrix(1.3879448,0,0,1.3871043,-0.29276,-6.0001202)"
       x1="8.6742573"
       y1="15.027722"
       x2="8.6742573"
       y2="3.1024117" />
    <linearGradient
       inkscape:collect="always"
       xlink:href="#linearGradient3977-3"
       id="linearGradient3902"
       gradientUnits="userSpaceOnUse"
       gradientTransform="matrix(1.3879448,0,0,1.3871043,-867.75826,-305.61463)"
       x1="633.30469"
       y1="218.84358"
       x2="633.30469"
       y2="230.17346" />
    <linearGradient
       inkscape:collect="always"
       xlink:href="#linearGradient5604-7"
       id="linearGradient3904"
       gradientUnits="userSpaceOnUse"
       gradientTransform="matrix(1.6666724,0,0,1.6000028,-2.33337,-7.7000402)"
       x1="8"
       y1="15"
       x2="8"
       y2="10" />
    <linearGradient
       inkscape:collect="always"
       xlink:href="#linearGradient5612-8"
       id="linearGradient3906"
       gradientUnits="userSpaceOnUse"
       gradientTransform="matrix(1.6666724,0,0,1.6000028,-2.33337,-7.7000402)"
       x1="9"
       y1="10"
       x2="9"
       y2="15" />
    <linearGradient
       inkscape:collect="always"
       xlink:href="#linearGradient5604-7"
       id="linearGradient3912"
       gradientUnits="userSpaceOnUse"
       gradientTransform="matrix(1.6666724,0,0,1.6000028,-2.33337,-2.7000402)"
       x1="8"
       y1="15"
       x2="8"
       y2="10" />
    <linearGradient
       inkscape:collect="always"
       xlink:href="#linearGradient5612-8"
       id="linearGradient3914"
       gradientUnits="userSpaceOnUse"
       gradientTransform="matrix(1.6666724,0,0,1.6000028,-2.33337,-2.7000402)"
       x1="9"
       y1="10"
       x2="9"
       y2="15" />
    <linearGradient
       inkscape:collect="always"
       xlink:href="#linearGradient3977-3"
       id="linearGradient3918"
       gradientUnits="userSpaceOnUse"
       gradientTransform="matrix(1.3879448,0,0,1.3871043,-867.75826,-299.61463)"
       x1="633.30469"
       y1="218.84358"
       x2="633.30469"
       y2="230.17346" />
    <linearGradient
       inkscape:collect="always"
       xlink:href="#linearGradient5518-7"
       id="linearGradient3921"
       gradientUnits="userSpaceOnUse"
       gradientTransform="matrix(1.3879448,0,0,1.3871043,-0.29276,-1.202e-4)"
       x1="8.6742573"
       y1="15.027722"
       x2="8.6742573"
       y2="3.1024117" />
  </defs>
  <metadata
     id="metadata12712">
    <rdf:RDF>
      <cc:Work
         rdf:about="">
        <dc:format>image/svg+xml</dc:format>
        <dc:type
           rdf:resource="http://purl.org/dc/dcmitype/StillImage" />
        <dc:title />
      </cc:Work>
    </rdf:RDF>
  </metadata>
  <path
     sodipodi:nodetypes="cccccccc"
     style="color:#000000;fill:url(#linearGradient3921);fill-opacity:1;fill-rule:nonzero;stroke:none;stroke-width:1;marker:none;visibility:visible;display:inline;overflow:visible;enable-background:accumulate"
     id="path2998-4-3-3-3"
     inkscape:connector-curvature="0"
     d="M 15.5,2.4999998 15.5,6.9354 10.8108,2.1238798 3.5,9.70961 3.5,20.5 l 15,0 0,-18.0000002 z" />
  <path
     sodipodi:nodetypes="cccccc"
     style="color:#000000;fill:none;stroke:url(#linearGradient3918);stroke-width:1;stroke-miterlimit:4;stroke-opacity:1;stroke-dasharray:none;marker:none;visibility:visible;display:inline;overflow:visible;enable-background:accumulate"
     id="path2998-4-3-3-1-3"
     inkscape:connector-curvature="0"
     d="M 10.8108,5.1238798 4.5,12.70961 4.5,19.5 l 13,0 0,-7.48394 z" />
  <path
     sodipodi:nodetypes="ccccc"
     style="color:#000000;fill:url(#linearGradient3912);fill-opacity:1;stroke:url(#linearGradient3914);stroke-width:1;stroke-linecap:butt;stroke-linejoin:round;stroke-miterlimit:4;stroke-opacity:1;stroke-dasharray:none;stroke-dashoffset:0;marker:none;visibility:visible;display:inline;overflow:visible;enable-background:accumulate"
     id="rect5583-1"
     inkscape:connector-curvature="0"
     d="m 8.5,13.496601 0,7.003399 5,0 0,-7.003399 z" />
  <path
     inkscape:connector-curvature="0"
     style="color:#000000;fill:#2d2d2d;fill-opacity:1;fill-rule:nonzero;stroke:none;stroke-width:1;marker:none;visibility:visible;display:inline;overflow:visible;enable-background:accumulate"
     id="path5620-8"
     d="m 13.586634,17.338695 a 0.6939725,0.69355226 0 0 1 -1.387945,0 0.6939725,0.69355226 0 1 1 1.387945,0 z" />
  <rect
     style="opacity:0.5;color:#000000;fill:#ffffff;fill-opacity:1;stroke:none;stroke-width:1;marker:none;visibility:visible;display:inline;overflow:visible;enable-background:accumulate"
     id="rect6106"
     y="3.0000005"
     x="16"
     height="1"
     width="2" />
  <path
     sodipodi:nodetypes="cccccccc"
     d="M 15.5,2.4999998 15.5,6.9354 10.8108,2.1238798 3.5,9.70961 3.5,20.5 l 15,0 0,-18.0000002 z"
     inkscape:connector-curvature="0"
     id="path3898"
     style="opacity:0.61000001;color:#000000;fill:none;stroke:#3f3f3f;stroke-width:1;stroke-miterlimit:4;stroke-opacity:1;stroke-dasharray:none;marker:none;visibility:visible;display:inline;overflow:visible;enable-background:accumulate" />
  <rect
     style="opacity:0.1;fill:#ffffff;fill-opacity:1;stroke:none"
     id="rect3849"
     width="4"
     height="1"
     x="9"
     y="14" />
  <path
     style="color:#000000;fill:#49485a;fill-opacity:1;fill-rule:nonzero;stroke:none;stroke-width:1.70000005;marker:none;visibility:visible;display:inline;overflow:visible;enable-background:accumulate"
     d="M 11,1 1,10.90625 1.09375,11 1,11 1,13 3,13 3,12.875 3.125,13 11,5.125 18.875,13 19,12.875 19,13 21,13 21,11 20.90625,11 21,10.90625 z"
     id="path2998-4-0-8"
     inkscape:connector-curvature="0"
     sodipodi:nodetypes="ccccccccccccccccc" />
  <path
     style="font-size:medium;font-style:normal;font-variant:normal;font-weight:normal;font-stretch:normal;text-indent:0;text-align:start;text-decoration:none;line-height:normal;letter-spacing:normal;word-spacing:normal;text-transform:none;direction:ltr;block-progression:tb;writing-mode:lr-tb;text-anchor:start;baseline-shift:baseline;opacity:0.5;color:#000000;fill:#000000;fill-opacity:1;stroke:none;stroke-width:2;marker:none;visibility:visible;display:inline;overflow:visible;enable-background:accumulate;font-family:Sans;-inkscape-font-specification:Sans"
     d="M 11,3.219 19.5625,11.68775 18.875,12.344 11.71875,5.18775 11,4.50025 10.28125,5.18775 3.125,12.344 2.4375,11.68775 z"
     id="path3045"
     inkscape:connector-curvature="0"
     sodipodi:nodetypes="ccccccccc" />
  <path
     sodipodi:nodetypes="ccccccccc"
     inkscape:connector-curvature="0"
     id="path3819"
     d="M 11,1.8654466 20.5625,11.334197 19.875,11.990447 11.71875,3.8341966 11,3.1466966 10.28125,3.8341966 2.125,11.990447 1.4375,11.334197 z"
     style="font-size:medium;font-style:normal;font-variant:normal;font-weight:normal;font-stretch:normal;text-indent:0;text-align:start;text-decoration:none;line-height:normal;letter-spacing:normal;word-spacing:normal;text-transform:none;direction:ltr;block-progression:tb;writing-mode:lr-tb;text-anchor:start;baseline-shift:baseline;opacity:0.2;color:#000000;fill:#ffffff;fill-opacity:1;stroke:none;stroke-width:2;marker:none;visibility:visible;display:inline;overflow:visible;enable-background:accumulate;font-family:Sans;-inkscape-font-specification:Sans" />
</svg>

<svg xmlns="http://www.w3.org/2000/svg" viewBox="0 0 22 22"><defs><linearGradient id="3" gradientUnits="userSpaceOnUse" gradientTransform="matrix(1.38794 0 0 1.3871-867.76-299.61)" y1="218.84" x2="0" y2="230.17"><stop stop-color="#fff"/><stop offset=".029" stop-color="#fff" stop-opacity=".235"/><stop offset=".972" stop-color="#fff" stop-opacity=".157"/><stop offset="1" stop-color="#fff" stop-opacity=".392"/></linearGradient><linearGradient id="2" gradientUnits="userSpaceOnUse" gradientTransform="matrix(1.38794 0 0 1.3871-.293 0)" y1="15.03" x2="0" y2="3.102"><stop stop-color="#eae5ff"/><stop offset="1" stop-color="#d4d5da"/></linearGradient><linearGradient id="0" gradientUnits="userSpaceOnUse" gradientTransform="matrix(1.66667 0 0 1.6-2.333-2.7)" y1="10" x2="0" y2="15"><stop stop-color="#212121"/><stop offset="1" stop-color="#58575e"/></linearGradient><linearGradient id="1" gradientUnits="userSpaceOnUse" gradientTransform="matrix(1.66667 0 0 1.6-2.333-2.7)" y1="15" x2="0" y2="10"><stop stop-color="#6f6c7e"/><stop offset="1" stop-color="#aaa"/></linearGradient></defs><g color="#000"><path d="m15.5 2.5v4.435l-4.689-4.812-7.311 7.586v10.79h15v-18z" fill="url(#2)"/><path d="m10.811 5.124l-6.311 7.586v6.79h13v-7.484z" fill="none" stroke="url(#3)"/><path d="m8.5 13.497v7h5v-7z" fill="url(#1)" stroke="url(#0)" stroke-linejoin="round"/><path d="m13.586634 17.338695a.693973 .693552 0 0 1 -1.387945 0 .693973 .693552 0 1 1 1.387945 0" fill="#2d2d2d"/><path opacity=".5" fill="#fff" d="m16 3h2v1h-2z"/><path d="m15.5 2.5v4.435l-4.689-4.812-7.311 7.586v10.79h15v-18z" opacity=".61" fill="none" stroke="#3f3f3f"/></g><path opacity=".1" fill="#fff" d="m9 14h4v1h-4z"/><g color="#000"><path d="m11 1l-10 9.906.094.094h-.094v2h2v-.125l.125.125 7.875-7.875 7.875 7.875.125-.125v.125h2v-2h-.094l.094-.094z" fill="#49485a"/><path d="m11 3.219l8.563 8.469-.688.656-7.156-7.156-.719-.688-.719.688-7.156 7.156-.688-.656z" opacity=".5"/><path d="m11 1.865l9.563 9.469-.688.656-8.156-8.156-.719-.688-.719.688-8.156 8.156-.688-.656z" opacity=".2" fill="#fff"/></g></svg>
